X: 156
T: REEL: Tommy Peoples' (Gmaj)
T: Milkmaid
C: C: Trad.; S: Various
C: Set Leaders: Sophie, Anton, Tania
Z: Anton Zille ed.; DaveF at The Session
N: https://thesession.org/members/26966/sets/74626
R: Reel
M: 4/4
L: 1/8
Q: 1/2=100
K: Gmaj
GGBG cABG|ADED FGAF|GGBG cABG|Addc AGFA|
GGGB cABG|ADED FGAF|GGBG cABG|Addc AG B/c/d||
|:ggdg egdg|ggbg fgaf|ggdg egdB|1 cBAc BG B/c/d:|2 cBAc BdAF||

